svg/swap_horizontal.svg

<svg xmlns="http://www.w3.org/2000/svg" viewBox="0 0 24 24"><path d="m21 9-4-4v3h-7v2h7v3M7 11l-4 4 4 4v-3h7v-2H7z"/></svg>

<?xml version="1.0" encoding="UTF-8"?><!DOCTYPE svg PUBLIC "-//W3C//DTD SVG 1.1//EN" "http://www.w3.org/Graphics/SVG/1.1/DTD/svg11.dtd"><svg xmlns="http://www.w3.org/2000/svg" xmlns:xlink="http://www.w3.org/1999/xlink" version="1.1" id="mdi-swap-horizontal" width="24" height="24" viewBox="0 0 24 24"><path d="M21,9L17,5V8H10V10H17V13M7,11L3,15L7,19V16H14V14H7V11Z" /></svg>
